X: 244
T: Miss Wardlaw's Favorite
C: William Shepherd (17??-1812)
R: jig
Q: "Slow"
B: William Shepherd "2nd Collection" 1800 p.24 #4
F: http://imslp.org/wiki/File:PMLP73094-Shepherd_Collections_HMT.pdf
Z: 2012 John Chambers <jc:trillian.mit.edu>
M: 6/8
L: 1/8
K: A
d |\
Tc>de Tc>de | Td>ef B2d | c>de f>dc | {c}B>AG A2d |\
Tc>de Tc>de | Td>ef B2d | c>ea G>Bd | Tc>dB A2 :|
|: E |\
.A>(Ac) e2Tc | .B>(Bd) f2Td | E>Ac e2Tc | d>Be A2E |\
.A>(Ac) e2Tc | .B>(Bd) f2Td | a>ec d>BG | TE>BG A2 :|
|: A |\
(GB).B (Ac).c | (Bd).d (ce).e | (GB).B A>ce | E>GB A2A |\
(GB).B (Ac).c | (Bd).d (ce).e | a>ec d>BG | TE>GB A2 :|
